Simply-Orange-Circles/scalable/devices/drive-multidisk.svg

<?xml version="1.0" encoding="UTF-8" standalone="no"?>
<svg
   xmlns:dc="http://purl.org/dc/elements/1.1/"
   xmlns:cc="http://creativecommons.org/ns#"
   xmlns:rdf="http://www.w3.org/1999/02/22-rdf-syntax-ns#"
   xmlns:svg="http://www.w3.org/2000/svg"
   xmlns="http://www.w3.org/2000/svg"
   xmlns:sodipodi="http://sodipodi.sourceforge.net/DTD/sodipodi-0.dtd"
   xmlns:inkscape="http://www.inkscape.org/namespaces/inkscape"
   width="48"
   height="48"
   viewBox="0 0 12.7 12.7"
   version="1.1"
   id="svg4"
   sodipodi:docname="drive-multidisk.svg"
   inkscape:version="0.92.4 (5da689c313, 2019-01-14)">
  <metadata
     id="metadata10">
    <rdf:RDF>
      <cc:Work
         rdf:about="">
        <dc:format>image/svg+xml</dc:format>
        <dc:type
           rdf:resource="http://purl.org/dc/dcmitype/StillImage" />
        <dc:title></dc:title>
      </cc:Work>
    </rdf:RDF>
  </metadata>
  <defs
     id="defs8" />
  <sodipodi:namedview
     pagecolor="#ffffff"
     bordercolor="#666666"
     borderopacity="1"
     objecttolerance="10"
     gridtolerance="10"
     guidetolerance="10"
     inkscape:pageopacity="0"
     inkscape:pageshadow="2"
     inkscape:window-width="1087"
     inkscape:window-height="480"
     id="namedview6"
     showgrid="false"
     inkscape:zoom="4.9166667"
     inkscape:cx="2.1355932"
     inkscape:cy="24"
     inkscape:window-x="0"
     inkscape:window-y="25"
     inkscape:window-maximized="0"
     inkscape:current-layer="svg4" />
  <path
     d="m 6.344,0.073 a 6.29,6.29 0 0 0 -6.29,6.29 6.29,6.29 0 0 0 6.29,6.288 6.29,6.29 0 0 0 6.29,-6.289 6.29,6.29 0 0 0 -6.29,-6.29 z M 6.326,1.009 A 5.407,5.407 0 0 1 11.733,6.416 5.407,5.407 0 0 1 6.326,11.823 5.407,5.407 0 0 1 0.92,6.416 5.407,5.407 0 0 1 6.326,1.01 Z M 3.784,2.312 A 1.128,1.128 0 0 0 2.665,3.433 v 3.87 c 0,0.611 0.507,1.121 1.119,1.121 H 7.15 A 1.128,1.128 0 0 0 8.268,7.303 V 3.433 C 8.268,2.823 7.762,2.312 7.15,2.312 Z M 5.466,3.331 A 1.79,1.79 0 0 1 7.25,5.113 1.79,1.79 0 0 1 5.467,6.896 H 3.681 L 3.684,5.113 C 3.672,4.135 4.489,3.331 5.466,3.331 Z m 0,1.019 A 0.756,0.756 0 0 0 4.703,5.113 c 0,0.428 0.335,0.765 0.763,0.765 A 0.757,0.757 0 0 0 6.231,5.113 0.757,0.757 0 0 0 5.466,4.35 Z m 3.311,0 v 4.998 c 0,0.066 -0.032,0.095 -0.095,0.095 H 5.308 C 5.245,9.443 5.212,9.413 5.212,9.347 V 8.934 H 4.193 v 0.414 c 0,0.61 0.502,1.114 1.115,1.114 H 8.682 A 1.119,1.119 0 0 0 9.796,9.347 V 5.465 C 9.796,4.886 9.345,4.4 8.777,4.35 Z"
     id="path2"
     inkscape:connector-curvature="0"
     style="fill:#ff7f2a" />
</svg>

<svg xmlns="http://www.w3.org/2000/svg" width="48" height="48" viewBox="0 0 12.7 12.7"><path d="M6.34.07a6.29 6.29 0 0 0-6.29 6.3 6.29 6.29 0 0 0 6.3 6.28 6.29 6.29 0 0 0 6.28-6.29A6.29 6.29 0 0 0 6.34.07zm-.01.94a5.4 5.4 0 0 1 5.4 5.4 5.4 5.4 0 0 1-5.4 5.41 5.4 5.4 0 0 1-5.41-5.4A5.4 5.4 0 0 1 6.32 1zM3.78 2.3a1.13 1.13 0 0 0-1.11 1.12V7.3c0 .61.5 1.12 1.11 1.12h3.37A1.13 1.13 0 0 0 8.27 7.3V3.43c0-.6-.5-1.12-1.12-1.12H3.78zm1.69 1.02a1.79 1.79 0 0 1 1.78 1.78A1.79 1.79 0 0 1 5.47 6.9H3.68V5.1c0-.97.8-1.78 1.79-1.78zm0 1.02a.76.76 0 0 0-.77.76c0 .43.34.77.77.77a.76.76 0 0 0 .76-.77.76.76 0 0 0-.76-.76zm3.3 0v5c0 .06-.03.1-.09.1H5.31c-.06 0-.1-.04-.1-.1v-.42H4.2v.42c0 .6.5 1.11 1.12 1.11h3.37A1.12 1.12 0 0 0 9.8 9.35V5.47c0-.58-.45-1.07-1.02-1.12z" fill="#ff7f2a"/></svg>
